images/icons/leaf.svg

<svg width="32" height="32" viewBox="0 0 32 32" fill="none" xmlns="http://www.w3.org/2000/svg">
<path d="M25.3243 18.4851C24.9176 9.40971 17.0094 0.620945 16.6569 0.238825C16.6569 0.238825 16.6569 0.238825 16.6118 0.238825L16.5033 0.114636L16.3858 0.038212H15.8797L15.708 0H15.6628L15.5001 0.114636L15.4007 0.200613C15.4007 0.200613 15.4007 0.200613 15.3555 0.200613C15.003 0.620945 7.09482 9.41926 6.67004 18.4851C6.66555 18.5518 6.66555 18.6189 6.67004 18.6857C6.67004 19.0296 6.67004 19.3735 6.67004 19.7269C7.01348 29.5665 15.708 31.9739 15.7803 31.993H16.0062C16.0813 32.0023 16.1571 32.0023 16.2322 31.993C16.3135 31.993 24.9989 29.5188 25.3333 19.7269C25.3333 19.3735 25.3333 19.0296 25.3333 18.6857C25.3333 18.6188 25.3243 18.5519 25.3243 18.4851ZM9.05605 15.132C10.8613 16.772 12.9024 18.0974 15.1024 19.0582V23.4049C12.8881 22.2489 9.48083 20.195 8.47763 18.3895C8.55902 17.2871 8.74369 16.1959 9.02894 15.132H9.05605ZM10.8636 10.2599C12.0457 11.5651 13.4961 12.5653 15.1024 13.1831V16.947C13.083 16.0461 11.2431 14.7496 9.67967 13.1258C10.0235 12.1479 10.4188 11.1912 10.8636 10.2599ZM22.3508 13.1258C20.7881 14.7505 18.948 16.0471 16.9281 16.947V13.1831C18.5215 12.5601 19.959 11.5602 21.1307 10.2599C21.5866 11.1779 21.994 12.1219 22.3508 13.0876V13.1258ZM16.9281 11.1579V3.5155C18.136 5.08129 19.2383 6.73485 20.2269 8.46396C19.3552 9.6354 18.2129 10.55 16.91 11.1197L16.9281 11.1579ZM16.9281 23.424V19.0582C19.1365 18.106 21.1868 16.787 23.0016 15.1511C23.2784 16.219 23.454 17.3135 23.5258 18.4182C22.5316 20.195 19.1243 22.2394 16.91 23.3857L16.9281 23.424ZM15.1205 11.1579C13.8116 10.5809 12.6681 9.65222 11.8036 8.46396C12.7904 6.71844 13.8928 5.04887 15.1024 3.46774L15.1205 11.1579ZM8.66742 21.4083C10.6441 23.05 12.8055 24.4265 15.1024 25.5065V29.7098C13.4593 29.0042 12.0095 27.8747 10.8855 26.4246C9.7614 24.9745 8.99886 23.2499 8.66742 21.4083ZM16.91 29.7194V25.497C19.2088 24.4248 21.3707 23.0511 23.345 21.4083C23.0276 23.2569 22.2704 24.9898 21.1447 26.4437C20.0189 27.8977 18.5616 29.025 16.91 29.7194Z" fill="#2D3440"/>
</svg>

<svg xmlns="http://www.w3.org/2000/svg" width="32" height="32" fill="none" viewBox="0 0 32 32"><path fill="#2D3440" d="M25.324 18.485C24.918 9.41 17.01.621 16.657.24h-.045l-.109-.124-.117-.077h-.506L15.708 0h-.045L15.5.115 15.4.2h-.045c-.352.42-8.26 9.218-8.685 18.284a1.495 1.495 0 0 0 0 .2v1.042c.343 9.84 9.038 12.247 9.11 12.266h.226c.075.01.151.01.226 0 .082 0 8.767-2.474 9.101-12.266v-1.041c0-.067-.009-.134-.009-.2ZM9.056 15.132a22.227 22.227 0 0 0 6.046 3.926v4.347c-2.214-1.156-5.621-3.21-6.624-5.015a17.58 17.58 0 0 1 .55-3.258h.028Zm1.808-4.872a11.106 11.106 0 0 0 4.238 2.923v3.764c-2.019-.9-3.859-2.197-5.422-3.821.344-.978.739-1.935 1.184-2.866Zm11.487 2.866a17.3 17.3 0 0 1-5.423 3.821v-3.764a11.112 11.112 0 0 0 4.203-2.923 28.79 28.79 0 0 1 1.22 2.828v.038Zm-5.423-1.968V3.515a43.227 43.227 0 0 1 3.299 4.949 8.28 8.28 0 0 1-3.317 2.656l.018.038Zm0 12.266v-4.366a22.21 22.21 0 0 0 6.074-3.907c.276 1.068.452 2.163.524 3.267-.994 1.777-4.402 3.821-6.616 4.968l.018.038ZM15.12 11.158a8.206 8.206 0 0 1-3.316-2.694 43.263 43.263 0 0 1 3.298-4.996l.018 7.69Zm-6.453 10.25a30.164 30.164 0 0 0 6.435 4.098v4.204a10.679 10.679 0 0 1-4.216-3.285 11.518 11.518 0 0 1-2.219-5.017Zm8.243 8.311v-4.222a29.675 29.675 0 0 0 6.435-4.089 11.368 11.368 0 0 1-2.2 5.036 10.53 10.53 0 0 1-4.235 3.275Z"/></svg>
